X: 1
T: Farewell to the Creeks
C: J-23
M: 6/8
Z: Transcribed to abc by Mary Lou Knack
R: jig
K: D
A| "D"d2A "G"B2d| "D"A3 AFD| "G"G2B "D"F2A| "(Em)"AGF "A7"E2A|
   "D"d2A "G"B2d| "D"A3 AFD| FGA AGF| "A7"E3 "D"D2 :|
|:\
"D"F3 "A"G3| "D"A2F FED| "G"G2B "D"F2A| "(Em)"AGF "A7"E2D|
"D"F3 "A"G3| "D"A2F FED| FGA AGF| "A7"E3 "D"D3 :|
%%begintext ragged
%% 'I first heard this tune on a John Allan Cameron record as the song "Banks of
%% Sicily", by Hamish Henderson, who set words to the old tune.  It is also recorded
%% on Front Hall FHR08, "Alistair Anderson", played on Northumbrian small pipes.'
%% 9/1/98
%%endtext
